austria/municipalities/41812.svg

<?xml version="1.0" encoding="UTF-8"?>
<!DOCTYPE svg PUBLIC "-//W3C//DTD SVG 1.1//EN" "http://www.w3.org/Graphics/SVG/1.1/DTD/svg11.dtd">
<svg xmlns="http://www.w3.org/2000/svg" version="1.1" width="166px" height="207px" style="shape-rendering:geometricPrecision; text-rendering:geometricPrecision; image-rendering:optimizeQuality; fill-rule:evenodd; clip-rule:evenodd" xmlns:xlink="http://www.w3.org/1999/xlink">
<g><path style="opacity:1" fill="#000000" d="M -0.5,-0.5 C 54.8333,-0.5 110.167,-0.5 165.5,-0.5C 165.5,43.8333 165.5,88.1667 165.5,132.5C 157.936,172.065 134.603,196.731 95.5,206.5C 86.8333,206.5 78.1667,206.5 69.5,206.5C 30.0021,196.666 6.6688,171.666 -0.5,131.5C -0.5,87.5 -0.5,43.5 -0.5,-0.5 Z"/></g>
<g><path style="opacity:1" fill="#e10a15" d="M 56.5,32.5 C 57.4787,36.9871 60.1454,40.1538 64.5,42C 65.7932,42.49 67.1266,42.6567 68.5,42.5C 72.0208,43.1663 75.6875,43.8329 79.5,44.5C 73.9825,46.1622 73.3158,48.8289 77.5,52.5C 79.9514,53.5188 82.4514,53.5188 85,52.5C 86.4038,52.5093 87.5704,53.0093 88.5,54C 87.0559,55.0637 85.3893,55.5637 83.5,55.5C 77.1556,53.1777 75.1556,55.1777 77.5,61.5C 73.3983,61.956 69.565,61.2894 66,59.5C 64.4523,60.684 62.9523,60.5173 61.5,59C 55.6079,52.0323 49.6079,45.199 43.5,38.5C 42.3466,35.5539 41.3466,32.5539 40.5,29.5C 37.7335,26.5588 34.5668,24.2254 31,22.5C 29.6718,24.0225 29.8384,25.6892 31.5,27.5C 27.7407,27.9522 24.7407,29.6188 22.5,32.5C 22.5,33.1667 22.1667,33.5 21.5,33.5C 18.7452,35.9919 19.0786,36.6586 22.5,35.5C 23.737,35.5565 24.737,36.0565 25.5,37C 24.4734,38.8665 23.4734,40.6998 22.5,42.5C 19.861,45.5344 20.5276,46.5344 24.5,45.5C 26.7948,47.4799 29.4615,48.6466 32.5,49C 31.4216,49.6739 30.7549,50.6739 30.5,52C 30.9434,53.825 31.2767,55.6583 31.5,57.5C 27.3978,58.8591 27.5645,59.5258 32,59.5C 35.6731,59.3724 39.0064,58.3724 42,56.5C 45.5122,63.6832 49.6789,70.5166 54.5,77C 51.2374,77.8695 50.9041,79.2028 53.5,81C 54.7932,81.49 56.1266,81.6567 57.5,81.5C 56.7457,84.378 56.4124,87.2114 56.5,90C 51.5396,91.6564 46.5396,93.1564 41.5,94.5C 38.1004,93.9649 35.1004,92.6316 32.5,90.5C 29.4863,91.464 26.8196,92.7973 24.5,94.5C 23.5222,94.811 22.8555,95.4777 22.5,96.5C 23.7287,97.2811 25.062,97.7811 26.5,98C 23.4754,101.788 22.4754,105.955 23.5,110.5C 25.6828,108.941 27.8495,108.274 30,108.5C 31.7826,111.078 32.9492,113.911 33.5,117C 33.8333,117.167 34.1667,117.333 34.5,117.5C 35.7997,114.568 37.7997,112.234 40.5,110.5C 41.3094,108.929 41.6427,107.262 41.5,105.5C 44.2763,105.089 44.943,105.922 43.5,108C 46.1245,110.162 47.1245,112.995 46.5,116.5C 48.9032,116.607 50.7365,115.607 52,113.5C 53.6914,110.393 54.8581,107.059 55.5,103.5C 57.7016,102.22 59.8683,102.22 62,103.5C 63.4872,106.481 64.8206,109.481 66,112.5C 67.5548,110.854 69.2215,110.521 71,111.5C 71.2511,113.433 71.7511,115.266 72.5,117C 51.583,129.708 30.7497,142.541 10,155.5C 5.42021,145.037 3.08687,134.037 3,122.5C 2.50001,82.5014 2.33334,42.5014 2.5,2.5C 55.5,2.5 108.5,2.5 161.5,2.5C 161.833,22.178 161.5,41.8446 160.5,61.5C 143.249,72.3753 126.082,83.3753 109,94.5C 105.746,88.3319 107.579,85.4986 114.5,86C 118.292,83.9473 119.458,80.7806 118,76.5C 116.534,78.3249 114.701,78.8249 112.5,78C 114.068,75.6959 115.235,73.1959 116,70.5C 118.684,69.9318 121.184,68.9318 123.5,67.5C 124.652,64.8938 124.818,62.2272 124,59.5C 122.89,61.0368 121.39,61.7035 119.5,61.5C 118.732,57.1703 120.065,53.837 123.5,51.5C 124.833,49.1667 124.833,46.8333 123.5,44.5C 122.28,45.7111 121.113,45.7111 120,44.5C 119.667,39.8333 119.333,35.1667 119,30.5C 115.466,24.6935 113.966,18.3602 114.5,11.5C 111.386,12.0913 108.886,13.758 107,16.5C 105.475,13.437 103.475,10.7703 101,8.5C 99.625,12.0817 97.9584,15.4151 96,18.5C 93.3999,18.9177 91.2332,20.0844 89.5,22C 85.8333,22.3333 82.1667,22.6667 78.5,23C 76.8998,24.815 74.8998,25.9817 72.5,26.5C 71.4471,27.4383 70.7804,28.605 70.5,30C 71.4128,34.6671 74.0795,37.8338 78.5,39.5C 67.6656,39.2055 60.1656,33.8722 56,23.5C 54.1267,26.626 54.2933,29.626 56.5,32.5 Z"/></g>
<g><path style="opacity:1" fill="#fea700" d="M 100.5,12.5 C 102.5,13.976 104.167,15.8094 105.5,18C 103.75,19.3186 101.75,19.8186 99.5,19.5C 99.9926,17.1944 100.326,14.861 100.5,12.5 Z"/></g>
<g><path style="opacity:1" fill="#fea600" d="M 90.5,24.5 C 94.4788,19.8564 99.1454,19.1897 104.5,22.5C 106.5,19.8333 108.833,17.5 111.5,15.5C 115.446,20.6123 115.113,25.279 110.5,29.5C 112.167,29.5 113.833,29.5 115.5,29.5C 116.279,34.1133 116.779,38.78 117,43.5C 117.687,46.4256 119.52,47.7589 122.5,47.5C 122.65,51.1612 121.15,52.1612 118,50.5C 117.5,51 117,51.5 116.5,52C 116.583,55.3617 116.75,58.8617 117,62.5C 118.491,64.0037 120.324,64.8371 122.5,65C 119.682,68.1286 116.682,68.2953 113.5,65.5C 112.355,66.7757 112.355,68.109 113.5,69.5C 111.062,73.1413 110.396,76.9746 111.5,81C 116.475,81.5849 116.475,82.7515 111.5,84.5C 109.443,82.4689 107.61,82.4689 106,84.5C 105.654,86.2182 105.154,87.8849 104.5,89.5C 105.946,91.6179 106.613,93.9512 106.5,96.5C 95.7171,102.151 85.2171,108.484 75,115.5C 74.0977,111.878 72.5977,108.545 70.5,105.5C 67.256,109.649 65.256,108.983 64.5,103.5C 71.8032,102.503 79.1365,102.169 86.5,102.5C 86.3505,101.448 86.5172,100.448 87,99.5C 91.9116,95.968 93.9116,91.3013 93,85.5C 91.6849,91.2947 88.5183,95.7947 83.5,99C 83.8333,99.3333 84.1667,99.6667 84.5,100C 78.1608,100.445 71.8275,100.278 65.5,99.5C 61.209,99.4368 57.0424,100.103 53,101.5C 50.6948,101.516 49.0282,100.516 48,98.5C 47.1301,99.1079 46.6301,99.9412 46.5,101C 47.9544,102.713 49.7877,103.88 52,104.5C 52.7805,105.944 52.6139,107.277 51.5,108.5C 49.9579,107.253 48.4579,107.253 47,108.5C 43.3224,98.894 40.3224,99.2273 38,109.5C 32.8694,107.768 32.7027,105.101 37.5,101.5C 37.1667,101.167 36.8333,100.833 36.5,100.5C 34.5,101.833 32.8333,103.5 31.5,105.5C 30.5745,106.641 29.7412,106.641 29,105.5C 28.5983,104.128 28.0983,102.795 27.5,101.5C 43.9381,96.8045 60.2715,91.6378 76.5,86C 76.8333,85.6667 77.1667,85.3333 77.5,85C 76.4258,84.2613 75.7591,83.2613 75.5,82C 76.452,80.6996 76.452,79.533 75.5,78.5C 73.9137,80.1727 73.2471,82.1727 73.5,84.5C 69.4174,85.5222 65.4174,86.8556 61.5,88.5C 58.7953,84.7309 59.1287,81.2309 62.5,78C 60.8739,78.1953 59.2072,78.1953 57.5,78C 59.3527,75.429 61.0194,72.7623 62.5,70C 64.7885,69.1779 67.1218,68.5112 69.5,68C 67.1367,67.4115 66.1367,65.9115 66.5,63.5C 72.6931,65.1805 78.6931,64.6805 84.5,62C 82.8333,61 81.1667,60 79.5,59C 84.662,59.5409 88.662,57.7076 91.5,53.5C 96.5438,52.831 101.544,51.9977 106.5,51C 109.794,49.1964 110.294,46.6964 108,43.5C 107.69,48.1415 105.19,50.3082 100.5,50C 94.1373,50.2466 87.804,50.7466 81.5,51.5C 79.7923,51.2972 78.459,50.4638 77.5,49C 82.9483,48.461 88.2816,47.461 93.5,46C 95.9811,40.446 94.3145,36.946 88.5,35.5C 84.5575,36.5999 80.5575,36.7666 76.5,36C 74.4746,34.806 74.1413,33.306 75.5,31.5C 74.5,30.6667 73.5,29.8333 72.5,29C 75.0822,28.1042 77.4155,26.7708 79.5,25C 83.1816,25.6639 86.8483,25.4972 90.5,24.5 Z"/></g>
<g><path style="opacity:1" fill="#000000" d="M 110.5,19.5 C 113.274,22.1108 112.941,24.4442 109.5,26.5C 106.869,24.9954 107.203,24.3287 110.5,24.5C 110.5,22.8333 110.5,21.1667 110.5,19.5 Z"/></g>
<g><path style="opacity:1" fill="#fea700" d="M 31.5,25.5 C 33.0699,24.4407 34.4032,24.9407 35.5,27C 35,27.5 34.5,28 34,28.5C 33.1482,27.4293 32.3149,26.4293 31.5,25.5 Z"/></g>
<g><path style="opacity:1" fill="#000000" d="M 90.5,24.5 C 94.8461,24.3343 99.1794,24.501 103.5,25C 101.14,26.365 99.4735,28.365 98.5,31C 92.736,32.7404 90.0693,30.5737 90.5,24.5 Z"/></g>
<g><path style="opacity:1" fill="#fefffe" d="M 92.5,27.5 C 93.0768,26.2267 93.7435,26.2267 94.5,27.5C 94.0302,28.463 93.3635,28.463 92.5,27.5 Z"/></g>
<g><path style="opacity:1" fill="#fefffe" d="M 97.5,26.5 C 99.6569,27.0533 99.4903,28.0533 97,29.5C 96.5304,28.4232 96.6971,27.4232 97.5,26.5 Z"/></g>
<g><path style="opacity:1" fill="#fea700" d="M 68.5,42.5 C 63.599,40.2672 59.599,36.9339 56.5,32.5C 56.3433,31.1266 56.51,29.7932 57,28.5C 61.9207,37.0543 69.4207,41.5543 79.5,42C 75.8484,42.4986 72.1817,42.6653 68.5,42.5 Z"/></g>
<g><path style="opacity:1" fill="#fea600" d="M 36.5,29.5 C 37.4959,29.4142 38.3292,29.7476 39,30.5C 39.9372,37.7002 43.4372,43.3668 49.5,47.5C 50.2811,48.7287 50.7811,50.062 51,51.5C 55.5,55.6667 60,59.8333 64.5,64C 63.1667,65 63.1667,66 64.5,67C 60.3592,68.4741 57.5259,71.3074 56,75.5C 52.5401,70.9131 49.8735,65.9131 48,60.5C 45.9083,57.319 43.575,54.319 41,51.5C 40.6667,49.5 40.3333,47.5 40,45.5C 39.1667,46.3333 38.3333,47.1667 37.5,48C 39.1134,50.2276 39.78,52.7276 39.5,55.5C 37.0916,54.799 34.7582,53.799 32.5,52.5C 34.9456,51.573 35.7789,49.9063 35,47.5C 33.136,46.0361 30.9694,45.0361 28.5,44.5C 29.7345,42.6017 29.4011,40.935 27.5,39.5C 27.6667,39.1667 27.8333,38.8333 28,38.5C 31.1058,40.9755 34.6058,42.1422 38.5,42C 34.7461,39.922 31.0794,37.7554 27.5,35.5C 28.7468,33.9579 28.7468,32.4579 27.5,31C 29.1124,30.2797 30.6124,30.4464 32,31.5C 33.1667,33.3333 34.3333,35.1667 35.5,37C 36.5,37.6667 37.5,37.6667 38.5,37C 35.0511,34.7564 34.3845,32.2564 36.5,29.5 Z"/></g>
<g><path style="opacity:1" fill="#fea700" d="M 22.5,32.5 C 23.9778,32.238 25.3112,32.5713 26.5,33.5C 24.7015,34.7879 23.0348,34.7879 21.5,33.5C 22.1667,33.5 22.5,33.1667 22.5,32.5 Z"/></g>
<g><path style="opacity:1" fill="#000000" d="M 56.5,32.5 C 59.599,36.9339 63.599,40.2672 68.5,42.5C 67.1266,42.6567 65.7932,42.49 64.5,42C 60.1454,40.1538 57.4787,36.9871 56.5,32.5 Z"/></g>
<g><path style="opacity:1" fill="#fefffe" d="M 79.5,39.5 C 82.5572,38.0303 83.0572,38.697 81,41.5C 80.7216,40.5842 80.2216,39.9175 79.5,39.5 Z"/></g>
<g><path style="opacity:1" fill="#fefffe" d="M 83.5,40.5 C 83.6395,38.663 84.3061,38.3296 85.5,39.5C 85.0431,40.2975 84.3764,40.6309 83.5,40.5 Z"/></g>
<g><path style="opacity:1" fill="#fefffe" d="M 87.5,39.5 C 88.2506,38.4265 89.2506,38.2599 90.5,39C 89.6477,40.7284 88.6477,40.895 87.5,39.5 Z"/></g>
<g><path style="opacity:1" fill="#e10a15" d="M 87.5,39.5 C 88.2916,40.9669 88.2916,42.3002 87.5,43.5C 86.218,42.0416 86.218,40.7082 87.5,39.5 Z"/></g>
<g><path style="opacity:1" fill="#000000" d="M 99.5,39.5 C 101.465,39.9483 101.798,40.9483 100.5,42.5C 99.6143,41.675 99.281,40.675 99.5,39.5 Z"/></g>
<g><path style="opacity:1" fill="#fea700" d="M 22.5,42.5 C 24.0174,42.4894 25.1841,41.8228 26,40.5C 26.3742,41.4162 26.8742,42.2496 27.5,43C 25.8988,43.2734 24.3988,43.7734 23,44.5C 22.5357,43.9056 22.369,43.2389 22.5,42.5 Z"/></g>
<g><path style="opacity:1" fill="#e10a15" d="M 83.5,40.5 C 84.5009,41.7887 84.3342,43.1221 83,44.5C 81.4658,43.1195 81.6325,41.7861 83.5,40.5 Z"/></g>
<g><path style="opacity:1" fill="#e10a15" d="M 90.5,40.5 C 92.2252,40.8425 92.7252,41.8425 92,43.5C 90.9614,42.7562 90.4614,41.7562 90.5,40.5 Z"/></g>
<g><path style="opacity:1" fill="#fea700" d="M 31.5,57.5 C 33.8098,53.2142 34.8098,53.5475 34.5,58.5C 33.209,58.7373 32.209,58.404 31.5,57.5 Z"/></g>
<g><path style="opacity:1" fill="#fefffe" d="M 159.5,64.5 C 160.816,67.0866 161.483,70.0866 161.5,73.5C 161.167,76.5 160.833,79.5 160.5,82.5C 113.701,112.071 66.7009,141.404 19.5,170.5C 15.8546,167.226 13.188,163.226 11.5,158.5C 11.7093,157.914 12.0426,157.414 12.5,157C 61.9015,126.642 110.901,95.8087 159.5,64.5 Z"/></g>
<g><path style="opacity:1" fill="#002b72" d="M 159.5,85.5 C 160.816,88.0866 161.483,91.0866 161.5,94.5C 161.333,97.5 161.167,100.5 161,103.5C 118.581,129.625 76.4139,156.125 34.5,183C 33.2411,183.982 31.9078,184.315 30.5,184C 26.3429,180.886 23.5096,177.052 22,172.5C 68.1511,143.85 113.984,114.85 159.5,85.5 Z"/></g>
<g><path style="opacity:1" fill="#fea700" d="M 31.5,92.5 C 34.0842,92.5688 36.0842,93.7355 37.5,96C 34.9234,97.2504 32.2567,97.5837 29.5,97C 30.2666,95.5295 30.9332,94.0295 31.5,92.5 Z"/></g>
<g><path style="opacity:1" fill="#fea700" d="M 24.5,94.5 C 25.4959,94.5858 26.3292,94.2524 27,93.5C 27.3089,96.9669 26.4756,97.3002 24.5,94.5 Z"/></g>
<g><path style="opacity:1" fill="#fea700" d="M 24.5,104.5 C 27.0182,105.759 26.8515,107.093 24,108.5C 23.805,107.181 23.9717,105.847 24.5,104.5 Z"/></g>
<g><path style="opacity:1" fill="#fefffe" d="M 160.5,106.5 C 161.653,112.319 161.819,118.319 161,124.5C 123.333,148.167 85.6667,171.833 48,195.5C 42.9102,192.706 38.0768,189.54 33.5,186C 75.8975,159.475 118.231,132.975 160.5,106.5 Z"/></g>
<g><path style="opacity:1" fill="#fea700" d="M 34.5,109.5 C 35.2891,109.783 35.9558,110.283 36.5,111C 33.6341,116.735 32.9674,116.235 34.5,109.5 Z"/></g>
<g><path style="opacity:1" fill="#fea700" d="M 48.5,109.5 C 50.4759,110.427 50.8092,111.76 49.5,113.5C 48.5713,112.311 48.238,110.978 48.5,109.5 Z"/></g>
<g><path style="opacity:1" fill="#002b72" d="M 160.5,127.5 C 161.677,134.219 160.844,140.886 158,147.5C 129.251,165.792 100.418,183.958 71.5,202C 64.5099,201.419 57.8432,199.585 51.5,196.5C 88.0026,173.678 124.336,150.678 160.5,127.5 Z"/></g>
<g><path style="opacity:1" fill="#fefffe" d="M -0.5,131.5 C 6.6688,171.666 30.0021,196.666 69.5,206.5C 46.1667,206.5 22.8333,206.5 -0.5,206.5C -0.5,181.5 -0.5,156.5 -0.5,131.5 Z"/></g>
<g><path style="opacity:1" fill="#fefffe" d="M 165.5,132.5 C 165.5,157.167 165.5,181.833 165.5,206.5C 142.167,206.5 118.833,206.5 95.5,206.5C 134.603,196.731 157.936,172.065 165.5,132.5 Z"/></g>
<g><path style="opacity:1" fill="#fefffe" d="M 155.5,151.5 C 156.043,151.56 156.376,151.893 156.5,152.5C 144.832,178.993 124.832,195.493 96.5,202C 89.8333,202.667 83.1667,202.667 76.5,202C 103.237,185.641 129.57,168.808 155.5,151.5 Z"/></g>
</svg>

<svg xmlns="http://www.w3.org/2000/svg" width="166" height="207" style="shape-rendering:geometricPrecision;text-rendering:geometricPrecision;image-rendering:optimizeQuality;fill-rule:evenodd;clip-rule:evenodd"><path style="opacity:1" d="M-.5-.5h166v133c-7.564 39.565-30.897 64.231-70 74h-26c-39.498-9.834-62.831-34.834-70-75V-.5z"/><path style="opacity:1" fill="#e10a15" d="M56.5 32.5c.979 4.487 3.645 7.654 8 9.5a8.434 8.434 0 0 0 4 .5c3.52.666 7.188 1.333 11 2-5.517 1.662-6.184 4.329-2 8 2.451 1.019 4.951 1.019 7.5 0 1.404.01 2.57.51 3.5 1.5-1.444 1.064-3.11 1.564-5 1.5-6.344-2.322-8.344-.322-6 6-4.102.456-7.935-.21-11.5-2-1.548 1.184-3.048 1.017-4.5-.5a730.902 730.902 0 0 0-18-20.5 92.327 92.327 0 0 1-3-9c-2.767-2.941-5.933-5.275-9.5-7-1.328 1.523-1.162 3.19.5 5-3.76.452-6.76 2.119-9 5 0 .667-.333 1-1 1-2.755 2.492-2.421 3.159 1 2 1.237.056 2.237.556 3 1.5a874.695 874.695 0 0 0-3 5.5c-2.639 3.034-1.972 4.034 2 3 2.295 1.98 4.962 3.147 8 3.5-1.078.674-1.745 1.674-2 3a47.489 47.489 0 0 1 1 5.5c-4.102 1.36-3.936 2.026.5 2 3.673-.128 7.006-1.128 10-3A129.957 129.957 0 0 0 54.5 77c-3.263.87-3.596 2.203-1 4a8.434 8.434 0 0 0 4 .5c-.754 2.878-1.088 5.711-1 8.5a253.654 253.654 0 0 1-15 4.5c-3.4-.535-6.4-1.868-9-4-3.014.964-5.68 2.297-8 4-.978.311-1.645.978-2 2a10.253 10.253 0 0 0 4 1.5c-3.025 3.788-4.025 7.955-3 12.5 2.183-1.559 4.35-2.226 6.5-2a21.371 21.371 0 0 1 3.5 8.5l1 .5c1.3-2.932 3.3-5.266 6-7a9.107 9.107 0 0 0 1-5c2.776-.411 3.443.422 2 2.5 2.624 2.162 3.624 4.995 3 8.5 2.403.107 4.236-.893 5.5-3a33.037 33.037 0 0 0 3.5-10c2.202-1.28 4.368-1.28 6.5 0a109.025 109.025 0 0 1 4 9c1.555-1.646 3.222-1.979 5-1a20.438 20.438 0 0 0 1.5 5.5A5958.429 5958.429 0 0 0 10 155.5c-4.58-10.463-6.913-21.463-7-33-.5-39.999-.667-79.999-.5-120h159c.333 19.678 0 39.345-1 59a4140.895 4140.895 0 0 0-51.5 33c-3.254-6.168-1.421-9.001 5.5-8.5 3.792-2.053 4.958-5.22 3.5-9.5-1.466 1.825-3.299 2.325-5.5 1.5a25.727 25.727 0 0 0 3.5-7.5 23.351 23.351 0 0 0 7.5-3c1.152-2.606 1.318-5.273.5-8-1.11 1.537-2.61 2.203-4.5 2-.768-4.33.565-7.663 4-10 1.333-2.333 1.333-4.667 0-7-1.22 1.211-2.387 1.211-3.5 0l-1-14c-3.534-5.806-5.034-12.14-4.5-19-3.114.591-5.614 2.258-7.5 5a27.208 27.208 0 0 0-6-8c-1.375 3.582-3.042 6.915-5 10-2.6.418-4.767 1.584-6.5 3.5l-11 1c-1.6 1.815-3.6 2.982-6 3.5a6.205 6.205 0 0 0-2 3.5c.913 4.667 3.58 7.834 8 9.5-10.834-.294-18.334-5.628-22.5-16-1.873 3.126-1.707 6.126.5 9z"/><path style="opacity:1" fill="#fea700" d="M100.5 12.5c2 1.476 3.667 3.31 5 5.5-1.75 1.319-3.75 1.819-6 1.5a51.623 51.623 0 0 0 1-7z"/><path style="opacity:1" fill="#fea600" d="M90.5 24.5c3.979-4.644 8.645-5.31 14-2 2-2.667 4.333-5 7-7 3.946 5.112 3.613 9.779-1 14h5a116.82 116.82 0 0 1 1.5 14c.687 2.926 2.52 4.259 5.5 4 .15 3.661-1.35 4.661-4.5 3l-1.5 1.5c.083 3.362.25 6.862.5 10.5 1.491 1.504 3.324 2.337 5.5 2.5-2.818 3.129-5.818 3.295-9 .5-1.145 1.276-1.145 2.609 0 4-2.438 3.641-3.104 7.475-2 11.5 4.975.585 4.975 1.751 0 3.5-2.057-2.031-3.89-2.031-5.5 0a28.04 28.04 0 0 1-1.5 5c1.446 2.118 2.113 4.451 2 7a309.003 309.003 0 0 0-31.5 19 30.457 30.457 0 0 0-4.5-10c-3.244 4.149-5.244 3.483-6-2a121.86 121.86 0 0 1 22-1 4.932 4.932 0 0 1 .5-3c4.912-3.532 6.912-8.199 6-14-1.315 5.795-4.482 10.295-9.5 13.5l1 1a98.699 98.699 0 0 1-19-.5 36.342 36.342 0 0 0-12.5 2c-2.305.016-3.972-.984-5-3-.87.608-1.37 1.441-1.5 2.5 1.454 1.713 3.288 2.88 5.5 3.5.78 1.444.614 2.777-.5 4-1.542-1.247-3.042-1.247-4.5 0-3.678-9.606-6.678-9.273-9 1-5.13-1.732-5.297-4.399-.5-8l-1-1c-2 1.333-3.667 3-5 5-.925 1.141-1.759 1.141-2.5 0a28.854 28.854 0 0 0-1.5-4 915.718 915.718 0 0 0 49-15.5l1-1c-1.074-.739-1.74-1.739-2-3 .952-1.3.952-2.467 0-3.5-1.586 1.673-2.253 3.673-2 6a83.128 83.128 0 0 0-12 4c-2.705-3.77-2.371-7.27 1-10.5a21.405 21.405 0 0 1-5 0 71.233 71.233 0 0 0 5-8 54.658 54.658 0 0 1 7-2c-2.363-.588-3.363-2.088-3-4.5 6.193 1.68 12.193 1.18 18-1.5l-5-3c5.162.54 9.162-1.292 12-5.5a227.674 227.674 0 0 0 15-2.5c3.294-1.804 3.794-4.304 1.5-7.5-.31 4.642-2.81 6.808-7.5 6.5-6.363.247-12.696.747-19 1.5-1.708-.203-3.041-1.036-4-2.5a93.3 93.3 0 0 0 16-3c2.481-5.554.814-9.054-5-10.5-3.942 1.1-7.942 1.267-12 .5-2.025-1.194-2.359-2.694-1-4.5l-3-2.5a21.712 21.712 0 0 0 7-4c3.682.664 7.348.497 11-.5z"/><path style="opacity:1" d="M110.5 19.5c2.774 2.61 2.441 4.944-1 7-2.631-1.505-2.297-2.171 1-2v-5z"/><path style="opacity:1" fill="#fea700" d="M31.5 25.5c1.57-1.06 2.903-.56 4 1.5L34 28.5a81.718 81.718 0 0 0-2.5-3z"/><path style="opacity:1" d="M90.5 24.5c4.346-.166 8.68.001 13 .5-2.36 1.365-4.026 3.365-5 6-5.764 1.74-8.43-.426-8-6.5z"/><path style="opacity:1" fill="#fefffe" d="M92.5 27.5c.577-1.273 1.243-1.273 2 0-.47.963-1.136.963-2 0zM97.5 26.5c2.157.553 1.99 1.553-.5 3-.47-1.077-.303-2.077.5-3z"/><path style="opacity:1" fill="#fea700" d="M68.5 42.5c-4.901-2.233-8.901-5.566-12-10a8.434 8.434 0 0 1 .5-4c4.92 8.554 12.42 13.054 22.5 13.5a60.94 60.94 0 0 1-11 .5z"/><path style="opacity:1" fill="#fea600" d="M36.5 29.5c.996-.086 1.83.248 2.5 1 .937 7.2 4.437 12.867 10.5 17a10.253 10.253 0 0 1 1.5 4L64.5 64c-1.333 1-1.333 2 0 3-4.14 1.474-6.974 4.307-8.5 8.5a54.196 54.196 0 0 1-8-15 71.888 71.888 0 0 0-7-9l-1-6-2.5 2.5c1.613 2.228 2.28 4.728 2 7.5a31.867 31.867 0 0 1-7-3c2.446-.927 3.279-2.594 2.5-5-1.864-1.464-4.03-2.464-6.5-3 1.235-1.898.901-3.565-1-5l.5-1c3.106 2.475 6.606 3.642 10.5 3.5a225.369 225.369 0 0 1-11-6.5c1.247-1.542 1.247-3.042 0-4.5 1.612-.72 3.112-.554 4.5.5l3.5 5.5c1 .667 2 .667 3 0-3.449-2.244-4.115-4.744-2-7.5z"/><path style="opacity:1" fill="#fea700" d="M22.5 32.5c1.478-.262 2.811.071 4 1-1.799 1.288-3.465 1.288-5 0 .667 0 1-.333 1-1z"/><path style="opacity:1" d="M56.5 32.5c3.099 4.434 7.099 7.767 12 10a8.434 8.434 0 0 1-4-.5c-4.355-1.846-7.021-5.013-8-9.5z"/><path style="opacity:1" fill="#fefffe" d="M79.5 39.5c3.057-1.47 3.557-.803 1.5 2-.278-.916-.778-1.583-1.5-2zM83.5 40.5c.14-1.837.806-2.17 2-1-.457.797-1.124 1.13-2 1zM87.5 39.5c.75-1.074 1.75-1.24 3-.5-.852 1.728-1.852 1.895-3 .5z"/><path style="opacity:1" fill="#e10a15" d="M87.5 39.5c.792 1.467.792 2.8 0 4-1.282-1.458-1.282-2.792 0-4z"/><path style="opacity:1" d="M99.5 39.5c1.965.448 2.298 1.448 1 3-.886-.825-1.219-1.825-1-3z"/><path style="opacity:1" fill="#fea700" d="M22.5 42.5c1.517-.01 2.684-.677 3.5-2 .374.916.874 1.75 1.5 2.5a15.276 15.276 0 0 0-4.5 1.5 2.428 2.428 0 0 1-.5-2z"/><path style="opacity:1" fill="#e10a15" d="M83.5 40.5c1 1.289.834 2.622-.5 4-1.534-1.38-1.368-2.714.5-4zM90.5 40.5c1.725.343 2.225 1.343 1.5 3-1.039-.744-1.539-1.744-1.5-3z"/><path style="opacity:1" fill="#fea700" d="M31.5 57.5c2.31-4.286 3.31-3.953 3 1-1.291.237-2.291-.096-3-1z"/><path style="opacity:1" fill="#fefffe" d="M159.5 64.5c1.316 2.587 1.983 5.587 2 9l-1 9a14954.803 14954.803 0 0 1-141 88c-3.645-3.274-6.312-7.274-8-12a3.646 3.646 0 0 1 1-1.5 8161.492 8161.492 0 0 0 147-92.5z"/><path style="opacity:1" fill="#002b72" d="M159.5 85.5c1.316 2.587 1.983 5.587 2 9l-.5 9A8233.23 8233.23 0 0 0 34.5 183c-1.259.982-2.592 1.315-4 1-4.157-3.114-6.99-6.948-8.5-11.5a9478.145 9478.145 0 0 0 137.5-87z"/><path style="opacity:1" fill="#fea700" d="M31.5 92.5c2.584.069 4.584 1.236 6 3.5-2.577 1.25-5.243 1.584-8 1a39.175 39.175 0 0 0 2-4.5zM24.5 94.5c.996.086 1.83-.248 2.5-1 .309 3.467-.524 3.8-2.5 1zM24.5 104.5c2.518 1.259 2.352 2.593-.5 4-.195-1.319-.028-2.653.5-4z"/><path style="opacity:1" fill="#fefffe" d="M160.5 106.5c1.153 5.819 1.319 11.819.5 18l-113 71a110.834 110.834 0 0 1-14.5-9.5c42.397-26.525 84.731-53.025 127-79.5z"/><path style="opacity:1" fill="#fea700" d="M34.5 109.5c.79.283 1.456.783 2 1.5-2.866 5.735-3.533 5.235-2-1.5zM48.5 109.5c1.976.927 2.31 2.26 1 4-.929-1.189-1.262-2.522-1-4z"/><path style="opacity:1" fill="#002b72" d="M160.5 127.5c1.177 6.719.344 13.386-2.5 20A11552.079 11552.079 0 0 1 71.5 202c-6.99-.581-13.657-2.415-20-5.5a11511.385 11511.385 0 0 0 109-69z"/><path style="opacity:1" fill="#fefffe" d="M-.5 131.5c7.169 40.166 30.502 65.166 70 75h-70v-75zM165.5 132.5v74h-70c39.103-9.769 62.436-34.435 70-74z"/><path style="opacity:1" fill="#fefffe" d="M155.5 151.5c.543.06.876.393 1 1-11.668 26.493-31.668 42.993-60 49.5a100.2 100.2 0 0 1-20 0 2374.493 2374.493 0 0 0 79-50.5z"/></svg>
